X:96
T:Absent Minded Woman, The
O:england
R:reel
M:C|
K:G
~G3A BABd|edgd edBA|~G3A BABd|(3efg dB AGEF|
~G3A BABd|edgd e2ge|dega bage|dBAB G4:|
|:g2bg agbg|~g2bg aged|g2bg agbg|gedB AGED|
g2bg agbg|~g2bg aged|gbaf gedB|AGAB G4:|


